X: 40
T:Dingle Regatta
N: page 13
N: hexatonic
N: matches 173
S:Folk Camp, via EF
R: Slide
M:12/8
K:G
|:"G"d^cd e2d BAB d2B|"D"ABA AGA "G"B2A "D7"G2B|\
"G"d^cd e2d "Em"BAB d2B|"D7"AGA B2A "G"G3 G3:|
|:"D7"d2d def "G"g2g gfg|"D"a2a aga "G"b2a gfe|\
"D"d2d def  "G"g2g gfg|"D"a2g "D7"f2e def "G"g3:|
|:"G"gbg dgd BdB G2G|"D7"FGA DEF "G"G2B def|\
gfg dgd BdB G2G|"D7"FGA DEF "G"G3 -G3:|
